X:1
T:THE CENTENARY MARCH
L:1/8
Q:1/4=120
M:4/4
K:E
 z2 |"D" z8"G" "A7"|"D" z4"G" "D"z2 .E.G |:"D" !slide!B2 B>c BGFE |
 !slide!g2 g>e"G" fece |"D" B2 B>c BGFE |"G6"F2 F>G"A" F2 .E.G |"D" !slide!B2 B>c BGFE |
 !slide!g2 g>e"G" fedc |"D" B2 e>f"G" gfe"A7"d |"D" e2"G" e>d"D" e2 Be ||
"D"!slide!g3 b Begb |"A7/E" a2"D" g2"A/C#" f2"A6" g>a |"D" bgeB"D/F#" GB"G"AG |
"G6" F2 F>G"A" F2 G>A |"D" BEGB eBef | gbag"G" fedc |
"D"Bb^ab"A7" =afdf |1"D" e2"G" e>d"D" e2 .E.G :|2"D" e2"G" e>d"D" e2 z2 |
